docs/img/icons/svg/prikhodkin.svg

<svg width="1895" height="322" viewBox="0 0 1895 322" fill="none" xmlns="http://www.w3.org/2000/svg">
<path d="M16.2072 322C11.5463 322 7.62689 320.414 4.44902 317.241C1.48301 314.28 0 310.474 0 305.821V161.159C0.211859 144.451 4.13123 129.434 11.7581 116.11C19.385 102.786 29.7661 92.3172 42.9013 84.7035C56.0365 76.8782 70.8666 72.9655 87.3915 72.9655C104.128 72.9655 119.064 76.8782 132.2 84.7035C145.335 92.3172 155.716 102.786 163.343 116.11C171.181 129.434 175.101 144.451 175.101 161.159C175.101 177.867 171.499 192.883 164.296 206.207C157.305 219.32 147.665 229.789 135.377 237.614C123.09 245.228 109.213 249.034 93.7472 249.034C81.2476 249.034 69.7013 246.497 59.1084 241.421C48.7274 236.133 39.8293 229.048 32.4143 220.166V305.821C32.4143 310.474 30.9313 314.28 27.9653 317.241C24.9993 320.414 21.0799 322 16.2072 322ZM87.3915 220.483C98.1963 220.483 107.836 217.945 116.31 212.869C124.784 207.582 131.458 200.497 136.331 191.614C141.415 182.52 143.958 172.368 143.958 161.159C143.958 149.738 141.415 139.586 136.331 130.703C131.458 121.609 124.784 114.524 116.31 109.448C107.836 104.161 98.1963 101.517 87.3915 101.517C76.7986 101.517 67.1591 104.161 58.4729 109.448C49.9985 114.524 43.325 121.609 38.4523 130.703C33.5795 139.586 31.1432 149.738 31.1432 161.159C31.1432 172.368 33.5795 182.52 38.4523 191.614C43.325 200.497 49.9985 207.582 58.4729 212.869C67.1591 217.945 76.7986 220.483 87.3915 220.483Z" fill="#2C2C2C"/>
<path d="M239.334 247.766C228.741 247.766 223.444 242.478 223.444 231.903V90.0966C223.444 79.5218 228.741 74.2345 239.334 74.2345C249.926 74.2345 255.223 79.5218 255.223 90.0966V96.1241C261.579 88.7218 269.311 82.9057 278.421 78.6759C287.743 74.446 297.806 72.331 308.611 72.331C321.323 72.331 330.75 74.446 336.894 78.6759C343.25 82.6943 345.686 87.5586 344.203 93.269C343.144 97.7103 341.025 100.671 337.848 102.152C334.67 103.421 330.962 103.632 326.725 102.786C313.166 100.037 300.984 99.8253 290.18 102.152C279.375 104.478 270.794 108.814 264.439 115.159C258.295 121.503 255.223 129.54 255.223 139.269V231.903C255.223 242.478 249.926 247.766 239.334 247.766Z" fill="#2C2C2C"/>
<path d="M397.378 247.766C392.717 247.766 388.798 246.285 385.62 243.324C382.654 240.152 381.171 236.239 381.171 231.586V90.4138C381.171 85.5494 382.654 81.6368 385.62 78.6759C388.798 75.7149 392.717 74.2345 397.378 74.2345C402.251 74.2345 406.17 75.7149 409.136 78.6759C412.102 81.6368 413.585 85.5494 413.585 90.4138V231.586C413.585 236.239 412.102 240.152 409.136 243.324C406.17 246.285 402.251 247.766 397.378 247.766ZM397.378 46C391.658 46 386.679 43.9908 382.442 39.9724C378.417 35.7425 376.404 30.7724 376.404 25.0621C376.404 19.3517 378.417 14.4874 382.442 10.469C386.679 6.23908 391.658 4.12414 397.378 4.12414C403.098 4.12414 407.971 6.23908 411.996 10.469C416.233 14.4874 418.352 19.3517 418.352 25.0621C418.352 30.7724 416.233 35.7425 411.996 39.9724C407.971 43.9908 403.098 46 397.378 46Z" fill="#2C2C2C"/>
<path d="M489.459 247.766C484.799 247.766 480.985 246.391 478.019 243.641C475.265 240.68 473.888 236.874 473.888 232.221V15.5448C473.888 10.892 475.265 7.19081 478.019 4.44138C480.985 1.48046 484.799 0 489.459 0C494.12 0 497.828 1.48046 500.582 4.44138C503.548 7.19081 505.031 10.892 505.031 15.5448V144.662L582.253 75.8207C585.431 72.8598 588.927 71.485 592.74 71.6966C596.766 71.908 600.155 73.6 602.909 76.7724C605.876 79.9448 607.253 83.4345 607.041 87.2414C606.829 91.0483 605.134 94.4322 601.956 97.3931L543.483 149.421L605.134 224.924C607.888 228.308 609.053 232.009 608.63 236.028C608.418 239.834 606.511 243.218 602.909 246.179C599.52 248.929 595.706 250.092 591.469 249.669C587.444 249.457 584.054 247.66 581.3 244.276L520.92 169.724L505.031 183.683V232.221C505.031 236.874 503.548 240.68 500.582 243.641C497.828 246.391 494.12 247.766 489.459 247.766Z" fill="#2C2C2C"/>
<path d="M671.023 248.083C666.362 248.083 662.442 246.602 659.265 243.641C656.299 240.469 654.816 236.556 654.816 231.903V90.4138C654.816 85.5494 656.299 81.6368 659.265 78.6759C662.442 75.7149 666.362 74.2345 671.023 74.2345C675.895 74.2345 679.815 75.7149 682.781 78.6759C685.747 81.6368 687.23 85.5494 687.23 90.4138V93.9034C693.797 87.3471 701.742 82.1655 711.064 78.3586C720.386 74.5517 730.449 72.6483 741.254 72.6483C755.872 72.6483 768.901 75.8207 780.342 82.1655C791.994 88.2988 801.104 97.3931 807.671 109.448C814.451 121.503 817.84 136.308 817.84 153.862V231.903C817.84 236.556 816.252 240.469 813.074 243.641C810.108 246.602 806.294 248.083 801.633 248.083C796.972 248.083 793.053 246.602 789.875 243.641C786.909 240.469 785.426 236.556 785.426 231.903V153.862C785.426 135.885 780.553 122.772 770.808 114.524C761.274 106.064 749.304 101.834 734.898 101.834C726 101.834 717.949 103.632 710.746 107.228C703.543 110.823 697.823 115.687 693.586 121.821C689.348 127.743 687.23 134.616 687.23 142.441V231.903C687.23 236.556 685.747 240.469 682.781 243.641C679.815 246.602 675.895 248.083 671.023 248.083ZM671.023 184.634C666.362 184.634 662.442 183.154 659.265 180.193C656.299 177.021 654.816 173.108 654.816 168.455V16.1793C654.816 11.3149 656.299 7.4023 659.265 4.44138C662.442 1.48046 666.362 0 671.023 0C675.895 0 679.815 1.48046 682.781 4.44138C685.747 7.4023 687.23 11.3149 687.23 16.1793V168.455C687.23 173.108 685.747 177.021 682.781 180.193C679.815 183.154 675.895 184.634 671.023 184.634Z" fill="#2C2C2C"/>
<path d="M1235.87 250.997C1219.27 250.997 1204.26 247.161 1190.85 239.487C1177.65 231.6 1167.11 220.942 1159.24 207.513C1151.57 194.083 1147.74 178.949 1147.74 162.109C1147.74 145.269 1151.25 130.242 1158.28 117.026C1165.52 103.596 1175.31 93.0449 1187.66 85.3711C1200 77.4841 1213.95 73.5407 1229.49 73.5407C1242.05 73.5407 1253.65 76.2052 1264.29 81.5342C1274.93 86.6501 1283.87 93.6844 1291.11 102.637V16.3068C1291.11 11.4041 1292.6 7.46065 1295.58 4.47639C1298.78 1.49213 1302.71 0 1307.4 0C1312.29 0 1316.23 1.49213 1319.21 4.47639C1322.19 7.46065 1323.68 11.4041 1323.68 16.3068V162.109C1323.68 178.949 1319.74 194.083 1311.87 207.513C1304.2 220.942 1293.77 231.6 1280.58 239.487C1267.38 247.161 1252.48 250.997 1235.87 250.997ZM1235.87 222.221C1246.73 222.221 1256.41 219.663 1264.93 214.547C1273.44 209.218 1280.15 201.97 1285.05 192.804C1289.94 183.638 1292.39 173.407 1292.39 162.109C1292.39 150.598 1289.94 140.367 1285.05 131.414C1280.15 122.461 1273.44 115.427 1264.93 110.311C1256.41 104.982 1246.73 102.317 1235.87 102.317C1225.23 102.317 1215.54 104.982 1206.81 110.311C1198.3 115.427 1191.49 122.461 1186.38 131.414C1181.48 140.367 1179.03 150.598 1179.03 162.109C1179.03 173.407 1181.48 183.638 1186.38 192.804C1191.49 201.97 1198.3 209.218 1206.81 214.547C1215.54 219.663 1225.23 222.221 1235.87 222.221Z" fill="#2C2C2C"/>
<path d="M1396.84 249.718C1392.16 249.718 1388.33 248.333 1385.35 245.562C1382.58 242.578 1381.2 238.741 1381.2 234.051V15.6673C1381.2 10.9778 1382.58 7.24749 1385.35 4.47639C1388.33 1.49213 1392.16 0 1396.84 0C1401.53 0 1405.25 1.49213 1408.02 4.47639C1411 7.24749 1412.49 10.9778 1412.49 15.6673V145.802L1490.08 76.4183C1493.28 73.4341 1496.79 72.0485 1500.62 72.2617C1504.66 72.4748 1508.07 74.1801 1510.84 77.3776C1513.82 80.575 1515.2 84.0921 1514.99 87.929C1514.78 91.7659 1513.07 95.1765 1509.88 98.1608L1451.13 150.598L1513.07 226.697C1515.84 230.108 1517.01 233.838 1516.59 237.888C1516.37 241.725 1514.46 245.136 1510.84 248.12C1507.43 250.891 1503.6 252.063 1499.34 251.637C1495.3 251.424 1491.89 249.612 1489.12 246.201L1428.46 171.062L1412.49 185.131V234.051C1412.49 238.741 1411 242.578 1408.02 245.562C1405.25 248.333 1401.53 249.718 1396.84 249.718Z" fill="#2C2C2C"/>
<path d="M1582.47 249.718C1577.79 249.718 1573.85 248.226 1570.66 245.242C1567.68 242.045 1566.19 238.101 1566.19 233.412V91.1265C1566.19 86.2237 1567.68 82.2803 1570.66 79.296C1573.85 76.3117 1577.79 74.8196 1582.47 74.8196C1587.37 74.8196 1591.3 76.3117 1594.29 79.296C1597.27 82.2803 1598.76 86.2237 1598.76 91.1265V233.412C1598.76 238.101 1597.27 242.045 1594.29 245.242C1591.3 248.226 1587.37 249.718 1582.47 249.718ZM1582.47 46.3626C1576.72 46.3626 1571.72 44.3375 1567.46 40.2875C1563.42 36.0243 1561.4 31.015 1561.4 25.2596C1561.4 19.5043 1563.42 14.6015 1567.46 10.5515C1571.72 6.28826 1576.72 4.15665 1582.47 4.15665C1588.22 4.15665 1593.11 6.28826 1597.16 10.5515C1601.42 14.6015 1603.55 19.5043 1603.55 25.2596C1603.55 31.015 1601.42 36.0243 1597.16 40.2875C1593.11 44.3375 1588.22 46.3626 1582.47 46.3626Z" fill="#2C2C2C"/>
<path d="M1675.63 250.038C1670.95 250.038 1667.01 248.546 1663.82 245.562C1660.84 242.364 1659.35 238.421 1659.35 233.731V91.1265C1659.35 86.2237 1660.84 82.2803 1663.82 79.296C1667.01 76.3117 1670.95 74.8196 1675.63 74.8196C1680.53 74.8196 1684.47 76.3117 1687.45 79.296C1690.43 82.2803 1691.92 86.2237 1691.92 91.1265V94.6436C1698.52 88.0356 1706.5 82.8132 1715.87 78.9763C1725.23 75.1394 1735.34 73.2209 1746.2 73.2209C1760.89 73.2209 1773.98 76.4183 1785.47 82.8132C1797.18 88.9948 1806.34 98.1608 1812.94 110.311C1819.75 122.461 1823.15 137.382 1823.15 155.075V233.731C1823.15 238.421 1821.56 242.364 1818.36 245.562C1815.38 248.546 1811.55 250.038 1806.87 250.038C1802.19 250.038 1798.25 248.546 1795.05 245.562C1792.07 242.364 1790.58 238.421 1790.58 233.731V155.075C1790.58 136.956 1785.69 123.74 1775.9 115.427C1766.32 106.9 1754.29 102.637 1739.81 102.637C1730.87 102.637 1722.78 104.449 1715.55 108.073C1708.31 111.697 1702.56 116.599 1698.3 122.781C1694.05 128.749 1691.92 135.677 1691.92 143.564V233.731C1691.92 238.421 1690.43 242.364 1687.45 245.562C1684.47 248.546 1680.53 250.038 1675.63 250.038Z" fill="#2C2C2C"/>
<path d="M1872.74 250.883C1866.86 250.883 1861.71 248.799 1857.3 244.63C1853.11 240.253 1851.01 235.146 1851.01 229.31C1851.01 223.265 1853.11 218.158 1857.3 213.989C1861.71 209.612 1866.86 207.423 1872.74 207.423C1878.82 207.423 1883.97 209.612 1888.17 213.989C1892.37 218.158 1894.47 223.265 1894.47 229.31C1894.47 235.146 1892.37 240.253 1888.17 244.63C1883.97 248.799 1878.82 250.883 1872.74 250.883Z" fill="#FF007E"/>
<path fill-rule="evenodd" clip-rule="evenodd" d="M949.005 103.27C915.988 103.27 889.461 129.69 889.461 161.988C889.461 194.285 915.988 220.705 949.005 220.705C950.149 220.705 951.284 220.673 952.409 220.611C960.777 220.148 967.937 226.539 968.401 234.887C968.866 243.234 962.459 250.377 954.091 250.841C952.406 250.934 950.71 250.981 949.005 250.981C899.491 250.981 859.113 211.269 859.113 161.988C859.113 112.707 899.491 72.9944 949.005 72.9944C951.746 72.9944 954.462 73.1163 957.147 73.3554C965.494 74.099 971.657 81.4524 970.912 89.7798C970.167 98.1072 962.795 104.255 954.448 103.512C952.659 103.352 950.844 103.27 949.005 103.27Z" fill="#FF007E"/>
<path fill-rule="evenodd" clip-rule="evenodd" d="M1015.52 103.27C1014.37 103.27 1013.24 103.302 1012.11 103.364C1003.75 103.828 996.587 97.4363 996.123 89.0886C995.658 80.741 1002.07 73.5982 1010.43 73.1349C1012.12 73.0416 1013.81 72.9944 1015.52 72.9944C1065.03 72.9944 1105.41 112.707 1105.41 161.988C1105.41 211.269 1065.03 250.981 1015.52 250.981C1012.78 250.981 1010.06 250.859 1007.38 250.62C999.03 249.876 992.867 242.523 993.612 234.196C994.358 225.868 1001.73 219.72 1010.08 220.464C1011.87 220.623 1013.68 220.705 1015.52 220.705C1048.54 220.705 1075.06 194.285 1075.06 161.988C1075.06 129.69 1048.54 103.27 1015.52 103.27Z" fill="#FF007E"/>
</svg>

<svg width="1895" height="322" fill="none" xmlns="http://www.w3.org/2000/svg"><path d="M16.207 322c-4.66 0-8.58-1.586-11.758-4.759C1.483 314.28 0 310.474 0 305.821V161.159c.212-16.708 4.131-31.725 11.758-45.049 7.627-13.324 18.008-23.793 31.143-31.406 13.135-7.826 27.966-11.738 44.49-11.738 16.737 0 31.673 3.912 44.809 11.738 13.135 7.613 23.516 18.082 31.143 31.406 7.838 13.324 11.758 28.341 11.758 45.049s-3.602 31.724-10.805 45.048c-6.991 13.113-16.631 23.582-28.919 31.407-12.287 7.614-26.164 11.42-41.63 11.42-12.5 0-24.046-2.537-34.639-7.613-10.38-5.288-19.279-12.373-26.694-21.255v85.655c0 4.653-1.483 8.459-4.449 11.42C25 320.414 21.08 322 16.207 322zm71.184-101.517c10.805 0 20.445-2.538 28.919-7.614 8.474-5.287 15.148-12.372 20.021-21.255 5.084-9.094 7.627-19.246 7.627-30.455 0-11.421-2.543-21.573-7.627-30.456-4.873-9.094-11.547-16.179-20.021-21.255-8.474-5.287-18.114-7.931-28.919-7.931-10.592 0-20.232 2.644-28.918 7.931-8.474 5.076-15.148 12.161-20.02 21.255-4.873 8.883-7.31 19.035-7.31 30.456 0 11.209 2.437 21.361 7.31 30.455 4.872 8.883 11.545 15.968 20.02 21.255 8.686 5.076 18.326 7.614 28.918 7.614zm151.943 27.283c-10.593 0-15.89-5.288-15.89-15.863V90.097c0-10.575 5.297-15.862 15.89-15.862 10.592 0 15.889 5.287 15.889 15.862v6.027c6.356-7.402 14.088-13.218 23.198-17.448 9.322-4.23 19.385-6.345 30.19-6.345 12.712 0 22.139 2.115 28.283 6.345 6.356 4.018 8.792 8.883 7.309 14.593-1.059 4.441-3.178 7.402-6.355 8.883-3.178 1.269-6.886 1.48-11.123.634-13.559-2.749-25.741-2.96-36.545-.634-10.805 2.326-19.386 6.662-25.741 13.007-6.144 6.344-9.216 14.381-9.216 24.11v92.634c0 10.575-5.297 15.863-15.889 15.863zm158.044 0c-4.661 0-8.58-1.481-11.758-4.442-2.966-3.172-4.449-7.085-4.449-11.738V90.414c0-4.865 1.483-8.777 4.449-11.738 3.178-2.961 7.097-4.442 11.758-4.442 4.873 0 8.792 1.48 11.758 4.442 2.966 2.96 4.449 6.873 4.449 11.738v141.172c0 4.653-1.483 8.566-4.449 11.738-2.966 2.961-6.885 4.442-11.758 4.442zm0-201.766c-5.72 0-10.699-2.01-14.936-6.028-4.025-4.23-6.038-9.2-6.038-14.91 0-5.71 2.013-10.575 6.038-14.593 4.237-4.23 9.216-6.345 14.936-6.345 5.72 0 10.593 2.115 14.618 6.345 4.237 4.018 6.356 8.883 6.356 14.593 0 5.71-2.119 10.68-6.356 14.91-4.025 4.019-8.898 6.028-14.618 6.028zm92.081 201.766c-4.66 0-8.474-1.375-11.44-4.125-2.754-2.961-4.131-6.767-4.131-11.42V15.545c0-4.653 1.377-8.354 4.131-11.104 2.966-2.96 6.78-4.441 11.44-4.441 4.661 0 8.369 1.48 11.123 4.441 2.966 2.75 4.449 6.451 4.449 11.104v129.117l77.222-68.841c3.178-2.961 6.674-4.336 10.487-4.124 4.026.211 7.415 1.903 10.169 5.075 2.967 3.173 4.344 6.662 4.132 10.47-.212 3.806-1.907 7.19-5.085 10.151l-58.473 52.028 61.651 75.503c2.754 3.384 3.919 7.085 3.496 11.104-.212 3.806-2.119 7.19-5.721 10.151-3.389 2.75-7.203 3.913-11.44 3.49-4.025-.212-7.415-2.009-10.169-5.393l-60.38-74.552-15.889 13.959v48.538c0 4.653-1.483 8.459-4.449 11.42-2.754 2.75-6.462 4.125-11.123 4.125zm181.564.317c-4.661 0-8.581-1.481-11.758-4.442-2.966-3.172-4.449-7.085-4.449-11.738V90.413c0-4.864 1.483-8.776 4.449-11.737 3.177-2.961 7.097-4.442 11.758-4.442 4.872 0 8.792 1.48 11.758 4.442 2.966 2.96 4.449 6.873 4.449 11.738v3.49c6.567-6.557 14.512-11.739 23.834-15.545 9.322-3.807 19.385-5.71 30.19-5.71 14.618 0 27.647 3.172 39.088 9.516 11.652 6.134 20.762 15.228 27.329 27.283 6.78 12.055 10.169 26.86 10.169 44.414v78.041c0 4.653-1.588 8.566-4.766 11.738-2.966 2.961-6.78 4.442-11.441 4.442-4.661 0-8.58-1.481-11.758-4.442-2.966-3.172-4.449-7.085-4.449-11.738v-78.041c0-17.977-4.873-31.09-14.618-39.338-9.534-8.46-21.504-12.69-35.91-12.69-8.898 0-16.949 1.798-24.152 5.394-7.203 3.595-12.923 8.459-17.16 14.593-4.238 5.922-6.356 12.795-6.356 20.62v89.462c0 4.653-1.483 8.566-4.449 11.738-2.966 2.961-6.886 4.442-11.758 4.442zm0-63.449c-4.661 0-8.581-1.48-11.758-4.441-2.966-3.172-4.449-7.085-4.449-11.738V16.179c0-4.864 1.483-8.777 4.449-11.738C662.442 1.481 666.362 0 671.023 0c4.872 0 8.792 1.48 11.758 4.441 2.966 2.961 4.449 6.874 4.449 11.738v152.276c0 4.653-1.483 8.566-4.449 11.738-2.966 2.961-6.886 4.441-11.758 4.441zm564.847 66.363c-16.6 0-31.61-3.836-45.02-11.51-13.2-7.887-23.74-18.545-31.61-31.974-7.67-13.43-11.5-28.564-11.5-45.404 0-16.84 3.51-31.867 10.54-45.083 7.24-13.43 17.03-23.981 29.38-31.655 12.34-7.887 26.29-11.83 41.83-11.83 12.56 0 24.16 2.664 34.8 7.993 10.64 5.116 19.58 12.15 26.82 21.103v-86.33c0-4.903 1.49-8.846 4.47-11.83 3.2-2.985 7.13-4.477 11.82-4.477 4.89 0 8.83 1.492 11.81 4.476 2.98 2.985 4.47 6.928 4.47 11.83V162.11c0 16.84-3.94 31.974-11.81 45.404-7.67 13.429-18.1 24.087-31.29 31.974-13.2 7.674-28.1 11.51-44.71 11.51zm0-28.776c10.86 0 20.54-2.558 29.06-7.674 8.51-5.329 15.22-12.577 20.12-21.743 4.89-9.166 7.34-19.397 7.34-30.695 0-11.511-2.45-21.742-7.34-30.695-4.9-8.953-11.61-15.987-20.12-21.103-8.52-5.329-18.2-7.994-29.06-7.994-10.64 0-20.33 2.665-29.06 7.994-8.51 5.116-15.32 12.15-20.43 21.103-4.9 8.953-7.35 19.184-7.35 30.695 0 11.298 2.45 21.529 7.35 30.695 5.11 9.166 11.92 16.414 20.43 21.743 8.73 5.116 18.42 7.674 29.06 7.674zm160.97 27.497c-4.68 0-8.51-1.385-11.49-4.156-2.77-2.984-4.15-6.821-4.15-11.511V15.667c0-4.69 1.38-8.42 4.15-11.19 2.98-2.985 6.81-4.477 11.49-4.477 4.69 0 8.41 1.492 11.18 4.476 2.98 2.771 4.47 6.502 4.47 11.191v130.135l77.59-69.384c3.2-2.984 6.71-4.37 10.54-4.156 4.04.213 7.45 1.918 10.22 5.116 2.98 3.197 4.36 6.714 4.15 10.551-.21 3.837-1.92 7.248-5.11 10.232l-58.75 52.437 61.94 76.099c2.77 3.411 3.94 7.141 3.52 11.191-.22 3.837-2.13 7.248-5.75 10.232-3.41 2.771-7.24 3.943-11.5 3.517-4.04-.213-7.45-2.025-10.22-5.436l-60.66-75.139-15.97 14.069v48.92c0 4.69-1.49 8.527-4.47 11.511-2.77 2.771-6.49 4.156-11.18 4.156zm185.63 0c-4.68 0-8.62-1.492-11.81-4.476-2.98-3.197-4.47-7.141-4.47-11.83V91.126c0-4.902 1.49-8.846 4.47-11.83 3.19-2.984 7.13-4.476 11.81-4.476 4.9 0 8.83 1.492 11.82 4.476 2.98 2.984 4.47 6.928 4.47 11.83v142.286c0 4.689-1.49 8.633-4.47 11.83-2.99 2.984-6.92 4.476-11.82 4.476zm0-203.355c-5.75 0-10.75-2.026-15.01-6.075-4.04-4.264-6.06-9.273-6.06-15.028 0-5.756 2.02-10.659 6.06-14.709 4.26-4.263 9.26-6.394 15.01-6.394s10.64 2.131 14.69 6.395c4.26 4.05 6.39 8.952 6.39 14.708 0 5.755-2.13 10.764-6.39 15.027-4.05 4.05-8.94 6.076-14.69 6.076zm93.16 203.675c-4.68 0-8.62-1.492-11.81-4.476-2.98-3.198-4.47-7.141-4.47-11.831V91.126c0-4.902 1.49-8.846 4.47-11.83 3.19-2.984 7.13-4.476 11.81-4.476 4.9 0 8.84 1.492 11.82 4.476 2.98 2.984 4.47 6.928 4.47 11.83v3.518c6.6-6.608 14.58-11.83 23.95-15.668 9.36-3.837 19.47-5.755 30.33-5.755 14.69 0 27.78 3.197 39.27 9.592 11.71 6.182 20.87 15.348 27.47 27.498 6.81 12.15 10.21 27.071 10.21 44.764v78.656c0 4.69-1.59 8.633-4.79 11.831-2.98 2.984-6.81 4.476-11.49 4.476-4.68 0-8.62-1.492-11.82-4.476-2.98-3.198-4.47-7.141-4.47-11.831v-78.656c0-18.119-4.89-31.335-14.68-39.648-9.58-8.527-21.61-12.79-36.09-12.79-8.94 0-17.03 1.812-24.26 5.436-7.24 3.624-12.99 8.526-17.25 14.708-4.25 5.968-6.38 12.896-6.38 20.783v90.167c0 4.69-1.49 8.633-4.47 11.831-2.98 2.984-6.92 4.476-11.82 4.476z" fill="#2C2C2C"/><path d="M1872.74 250.883c-5.88 0-11.03-2.084-15.44-6.253-4.19-4.377-6.29-9.484-6.29-15.32 0-6.045 2.1-11.152 6.29-15.321 4.41-4.377 9.56-6.566 15.44-6.566 6.08 0 11.23 2.189 15.43 6.566 4.2 4.169 6.3 9.276 6.3 15.321 0 5.836-2.1 10.943-6.3 15.32-4.2 4.169-9.35 6.253-15.43 6.253z" fill="#FF007E"/><path fill-rule="evenodd" clip-rule="evenodd" d="M949.005 103.27c-33.017 0-59.544 26.42-59.544 58.718 0 32.297 26.527 58.717 59.544 58.717 1.144 0 2.279-.032 3.404-.094 8.368-.463 15.528 5.928 15.992 14.276.465 8.347-5.942 15.49-14.31 15.954a92.29 92.29 0 01-5.086.14c-49.514 0-89.892-39.712-89.892-88.993 0-49.281 40.378-88.994 89.892-88.994 2.741 0 5.457.122 8.142.361 8.347.744 14.51 8.097 13.765 16.425-.745 8.327-8.117 14.475-16.464 13.732a61.084 61.084 0 00-5.443-.242zm66.515 0c-1.15 0-2.28.032-3.41.094-8.36.464-15.523-5.928-15.987-14.275-.465-8.348 5.947-15.49 14.307-15.954a92.14 92.14 0 015.09-.14c49.51 0 89.89 39.712 89.89 88.993 0 49.281-40.38 88.993-89.89 88.993-2.74 0-5.46-.122-8.14-.361-8.35-.744-14.513-8.097-13.768-16.424.746-8.328 8.118-14.476 16.468-13.732 1.79.159 3.6.241 5.44.241 33.02 0 59.54-26.42 59.54-58.717 0-32.298-26.52-58.718-59.54-58.718z" fill="#FF007E"/></svg>
